{"compressionlevel":-1,"height":48,"width":70,"infinite":false,"orientation":"orthogonal","renderorder":"right-down","tiledversion":"1.11.2","tileheight":64,"tilewidth":64,"type":"map","version":"1.10","nextlayerid":4,"nextobjectid":38,"properties":[{"name":"terrain_gids","type":"string","value":"{\"water\":[6,12],\"wetSand\":[5,9,17],\"sand\":[4],\"grass\":[2,3,16],\"dirt\":[1]}"}],"layers":[{"id":3,"name":"terrain","type":"tilelayer","width":70,"height":48,"data":[3,3,3,3,2,2,2,2,3,3,2,2,2,2,2,2,2,2,2,2,2,2,2,2,2,2,2,2,2,2,2,2,2,2,2,2,2,2,2,2,2,2,2,2,2,2,2,2,2,2,2,2,2,2,2,2,2,2,2,2,2,2,2,2,2,2,2,2,16,2,3,3,3,3,2,2,2,2,3,3,2,2,2,2,2,2,2,2,2,2,2,2,2,2,2,2,2,2,2,2,2,2,2,2,2,2,2,2,2,2,2,2,2,2,2,2,2,2,2,2,2,2,2,2,2,2,2,2,2,2,2,2,2,2,2,2,2,2,16,2,3,3,2,2,2,2,2,2,2,2,2,2,2,2,2,3,16,16,2,2,2,2,2,2,2,2,2,2,2,2,2,2,2,2,2,2,2,3,3,2,2,2,2,2,2,2,2,2,2,2,2,2,2,2,2,2,2,2,2,2,2,2,2,2,2,2,2,2,2,2,3,3,2,2,2,2,2,2,2,2,2,2,2,2,2,3,16,16,2,2,2,2,2,2,2,2,2,2,2,2,2,2,2,2,2,2,2,3,3,2,2,2,2,2,2,2,2,2,2,2,2,2,2,2,2,2,2,2,2,2,2,2,2,2,2,2,2,2,2,2,2,2,2,2,2,3,3,2,2,2,2,2,2,2,2,2,2,2,2,2,2,16,16,2,2,2,2,2,2,3,3,2,2,2,2,2,2,2,2,2,2,2,2,2,2,2,2,2,2,2,2,2,2,2,2,2,2,2,2,2,2,2,2,2,3,3,2,2,2,2,2,2,2,2,2,2,2,2,3,3,3,3,2,3,3,2,2,2,2,2,2,2,2,2,2,2,3,3,2,2,2,2,2,2,2,2,2,2,2,2,2,2,2,2,2,2,2,2,2,2,2,2,2,2,2,16,2,2,3,3,2,2,2,3,2,2,2,2,2,2,2,2,2,2,2,2,2,2,3,3,3,3,2,3,3,2,2,2,2,2,2,2,2,2,2,2,3,3,2,2,2,2,2,2,2,2,2,2,2,2,2,2,2,2,2,2,2,2,2,2,2,2,2,2,2,16,2,2,3,3,2,2,2,3,2,2,2,2,2,2,2,2,2,2,2,2,2,2,3,3,3,3,2,2,2,2,2,2,2,2,2,2,2,3,2,2,2,2,2,2,2,2,2,2,2,2,2,2,2,2,2,2,2,2,2,2,2,2,16,16,2,2,2,2,2,2,2,2,2,2,2,2,2,3,2,2,2,2,2,2,2,2,3,3,2,2,2,2,2,2,2,2,2,2,2,2,2,2,2,2,2,2,2,2,2,2,2,2,2,2,2,2,2,2,3,3,2,2,2,2,2,2,16,16,2,2,2,2,16,16,2,2,3,2,2,2,2,2,2,2,2,2,2,2,2,2,2,2,16,2,2,2,3,3,2,2,2,2,2,2,2,2,2,2,2,2,2,2,2,2,2,2,2,2,2,2,2,2,2,2,2,2,2,2,3,3,2,2,2,2,2,2,16,16,2,2,2,2,16,16,2,2,3,2,2,2,2,2,2,2,2,2,2,2,2,2,2,2,16,2,2,2,3,3,2,2,2,2,2,2,1,1,1,1,1,1,1,1,1,1,1,1,1,1,1,1,1,1,1,1,1,1,1,1,1,1,1,1,1,1,1,1,1,1,1,1,1,1,1,1,1,1,1,1,1,1,1,1,1,1,1,2,2,2,2,2,2,2,2,3,2,2,3,3,2,2,2,2,2,2,1,1,1,1,1,1,1,1,1,1,1,1,1,1,1,1,1,1,1,1,1,1,1,1,1,1,1,1,1,1,1,1,1,1,1,1,1,1,1,1,1,1,1,1,1,1,1,1,1,1,1,2,2,2,2,2,2,2,2,3,2,2,2,2,2,2,2,2,2,2,1,1,1,1,1,1,1,1,1,1,1,1,1,1,1,1,1,1,1,1,1,1,1,1,1,1,1,1,1,1,1,1,1,1,1,1,1,1,1,1,1,1,1,1,1,1,1,1,1,1,1,2,2,2,2,2,2,2,2,2,2,2,2,2,2,2,2,2,2,2,1,1,1,1,1,1,1,1,1,1,1,1,1,1,1,1,1,1,1,1,1,1,1,1,1,1,1,1,1,1,1,1,1,1,1,1,1,1,1,1,1,1,1,1,1,1,1,1,1,1,1,2,2,2,2,2,2,2,2,2,2,2,2,2,2,2,2,2,2,2,1,1,1,1,1,1,1,1,1,1,1,1,1,1,1,1,1,1,1,1,1,1,1,1,1,1,1,1,1,1,1,1,1,1,1,1,1,1,1,1,1,1,1,1,1,1,1,1,1,1,1,2,2,2,2,2,2,2,2,2,16,16,2,2,2,2,2,2,16,16,1,1,1,1,1,1,1,1,1,1,1,1,1,1,1,1,1,1,1,1,1,1,1,1,1,1,1,1,1,1,1,1,1,1,1,1,1,1,1,1,1,1,1,1,1,1,1,1,1,1,1,2,2,2,2,2,2,2,2,2,2,2,2,2,2,2,2,2,2,2,1,1,1,1,1,1,1,1,1,1,1,1,1,1,1,1,1,1,1,1,1,1,1,1,1,1,1,1,1,1,1,1,1,1,1,1,1,1,1,1,1,1,1,1,1,1,1,1,1,1,1,2,2,2,16,16,2,2,2,2,2,2,2,2,2,2,2,2,2,2,1,1,1,1,1,1,1,1,1,1,1,1,1,1,1,1,1,1,1,1,1,1,1,1,1,1,1,1,1,1,1,1,1,1,1,1,1,1,1,1,1,1,1,1,1,1,1,1,1,1,1,2,2,2,16,16,2,2,2,2,2,2,2,2,2,2,2,2,2,2,1,1,1,1,1,1,1,1,1,1,1,1,1,1,1,1,1,1,1,1,1,1,1,1,1,1,1,1,1,1,1,1,1,1,1,1,1,1,1,1,1,1,1,1,1,1,1,1,1,1,1,2,2,2,2,2,2,2,2,2,2,2,2,2,2,2,2,2,2,2,1,1,1,1,1,1,1,1,1,1,1,1,1,1,1,1,1,1,1,1,1,1,1,1,1,1,1,1,1,1,1,1,1,1,1,1,1,1,1,1,1,1,1,1,1,1,1,1,1,1,1,2,2,2,2,2,2,2,2,2,2,2,2,2,2,2,2,3,2,2,1,1,1,1,1,1,1,1,1,1,1,1,1,1,1,1,1,1,1,1,1,1,1,1,1,1,1,1,1,1,1,1,1,1,1,1,1,1,1,1,1,1,1,1,1,1,1,1,1,1,1,2,2,2,2,2,2,2,2,2,2,2,2,2,2,3,3,2,2,2,1,1,1,1,1,1,1,1,1,1,1,1,1,1,1,1,1,1,1,1,1,1,1,1,1,1,1,1,1,1,1,1,1,1,1,1,1,1,1,1,1,1,1,1,1,1,1,1,1,1,1,16,16,2,2,2,2,2,2,16,2,2,2,2,2,3,3,2,2,2,1,1,1,1,1,1,1,1,1,1,1,1,1,1,1,1,1,1,1,1,1,1,1,1,1,1,1,1,1,1,1,1,1,1,1,1,1,1,1,1,1,1,1,1,1,1,1,1,1,1,1,16,16,2,2,2,2,2,2,16,2,2,3,3,3,16,16,2,2,2,1,1,1,1,1,1,1,1,1,1,1,1,1,1,1,1,1,1,1,1,1,1,1,1,1,1,1,1,1,1,1,1,1,1,1,1,1,1,1,1,1,1,1,1,1,1,1,1,1,1,1,2,2,3,2,2,2,2,2,2,2,2,2,2,2,2,2,3,2,2,1,1,1,1,1,1,1,1,1,1,1,1,1,1,1,1,1,1,1,1,1,1,1,1,1,1,1,1,1,1,1,1,1,1,1,1,1,1,1,1,1,1,1,1,1,1,1,1,1,1,1,2,2,2,2,2,2,2,2,2,2,2,2,2,2,2,2,3,2,2,1,1,1,1,1,1,1,1,1,1,1,1,1,1,1,1,1,1,1,1,1,1,1,1,1,1,1,1,1,1,1,1,1,1,1,1,1,1,1,1,1,1,1,1,1,1,1,1,1,1,1,2,2,2,2,2,2,2,2,2,3,3,3,3,2,2,2,2,2,2,1,1,1,1,1,1,1,1,1,1,1,1,1,1,1,1,1,1,1,1,1,1,1,1,1,1,1,1,1,1,1,1,1,1,1,1,1,1,1,1,1,1,1,1,1,1,1,1,1,1,1,2,2,2,2,2,2,2,2,2,3,3,3,3,2,2,2,2,2,2,1,1,1,1,1,1,1,1,1,1,1,1,1,1,1,1,1,1,1,1,1,1,1,1,1,1,1,1,1,1,1,1,1,1,1,1,1,1,1,1,1,1,1,1,1,1,1,1,1,1,1,2,2,2,2,2,2,2,2,2,2,2,2,2,2,2,2,2,2,2,1,1,1,1,1,1,1,1,1,1,1,1,1,1,1,1,1,1,1,1,1,1,1,1,1,1,1,1,1,1,1,1,1,1,1,1,1,1,1,1,1,1,1,1,1,1,1,1,1,1,1,2,2,2,2,2,2,2,2,2,1,1,1,1,1,1,1,1,1,1,1,1,1,1,1,1,1,1,1,1,1,1,1,1,1,1,1,1,1,1,1,1,1,1,1,1,1,1,1,1,1,1,1,1,1,1,1,1,1,1,1,1,1,1,1,1,1,1,1,1,1,2,2,2,2,2,2,2,2,2,1,1,1,1,1,1,1,1,1,1,1,1,1,1,1,1,1,1,1,1,1,1,1,1,1,1,1,1,1,1,1,1,1,1,1,1,1,1,1,1,1,1,1,1,1,1,1,1,1,1,1,1,1,1,1,1,1,1,1,1,1,2,2,2,2,2,2,2,2,2,1,1,1,1,1,1,1,1,1,1,1,1,1,1,1,1,1,1,1,1,1,1,1,1,1,1,1,1,1,1,1,1,1,1,1,1,1,1,1,1,1,1,1,1,1,1,1,1,1,1,1,1,1,1,1,1,1,1,1,1,1,2,2,2,2,2,2,2,2,2,2,2,2,2,2,3,3,2,2,2,1,1,1,1,1,1,1,1,1,1,1,1,1,1,1,1,1,1,1,1,1,1,1,1,1,1,1,1,1,1,1,1,1,1,1,1,1,1,1,1,1,1,1,1,1,1,1,1,1,1,1,2,2,2,2,2,2,2,2,2,2,2,2,2,2,3,3,2,2,2,1,1,1,1,1,1,1,1,1,1,1,1,1,1,1,1,1,1,1,1,1,1,1,1,1,1,1,1,1,1,1,1,1,1,1,1,1,1,1,1,1,1,1,1,1,1,1,1,1,1,1,2,2,2,2,2,2,2,2,2,2,2,2,2,2,2,2,2,2,2,2,2,2,2,2,2,2,2,2,2,2,2,2,2,2,2,2,2,2,2,2,3,2,2,2,2,2,3,3,2,2,2,2,2,16,2,2,2,2,2,2,2,2,2,2,2,2,2,2,2,3,2,2,2,2,2,2,2,2,2,2,2,2,2,2,2,2,2,2,2,2,2,2,2,2,2,2,2,2,2,2,2,2,2,2,2,2,2,2,2,2,3,2,2,2,2,2,3,3,2,2,2,2,2,16,2,2,2,2,2,2,2,2,2,2,2,2,2,2,2,3,2,2,2,2,2,2,2,2,2,2,2,2,2,2,2,2,2,3,3,2,2,3,2,2,2,2,2,2,2,3,2,2,2,2,2,2,2,2,2,2,2,2,2,2,2,3,3,3,2,2,2,2,2,2,2,2,2,2,2,2,2,2,2,2,2,2,2,3,3,2,2,2,2,2,2,16,16,2,2,4,4,4,4,4,4,4,4,4,4,4,4,4,7,7,7,7,7,7,7,7,7,7,7,7,7,7,7,7,7,7,7,7,7,7,7,7,7,7,7,7,7,7,7,7,7,7,7,7,7,7,7,7,7,7,7,7,7,4,4,4,4,4,4,4,4,4,4,4,4,4,4,4,4,4,4,4,4,4,4,4,4,4,7,7,7,7,7,7,7,7,7,7,7,7,7,7,7,7,7,7,7,7,7,7,7,7,7,7,7,7,7,7,7,7,7,7,7,7,7,7,7,7,7,7,7,7,7,4,4,4,4,4,4,4,4,4,4,4,4,9,9,9,9,9,9,9,9,9,9,9,9,9,7,7,7,7,7,7,7,7,7,7,7,7,7,7,7,7,7,7,7,7,7,7,7,7,7,7,7,7,7,7,7,7,7,7,7,7,7,7,7,7,7,7,7,7,7,9,9,9,9,9,9,9,9,9,9,9,9,6,6,6,6,6,6,6,6,6,6,6,6,6,6,6,6,6,6,6,6,6,6,6,6,6,6,6,6,6,6,6,6,6,6,6,6,6,6,6,6,6,6,6,6,6,6,6,6,6,6,6,6,6,6,6,6,6,6,6,6,6,6,6,6,6,6,6,6,6,6,6,6,6,6,6,6,6,6,6,6,6,6,6,6,6,6,6,6,6,6,6,6,6,6,6,6,6,6,6,6,6,6,6,6,6,6,6,6,6,6,6,6,6,6,6,6,6,6,6,6,6,6,6,6,6,6,6,6,6,6,6,6,6,6,6,6,6,6,6,6,6,6,6,6,6,6,6,6,6,6,6,6,6,6,6,6,6,6,6,6,6,6,6,6,6,6,6,6,6,6,6,6,6,6,6,6,6,6,6,6,6,6,6,6,6,6,6,6,6,6,6,6,6,6,6,6,6,6,6,6,6,6,6,6,6,6,6,6,6,6,6,6,6,6,6,6,6,6,6,6,6,6,6,6,6,6,6,6,6,6,6,6,6,6,6,6,6,6,6,6,6,6,6,6,6,6,6,6,6,6,6,6,6,6,6,6,6,6,6,6,6,6,6,6,6,6,6,6,6,6,6,6,6,6,6,6,6,6,6,6,6,6,6,6,6,6,6,6,6,6,6,6,6,6,6,6,6,6,6,6,6,6,6,6,6,6,6,6,6,6,6,6,6,6,6,6,6,6,6,6,6,6,6,6,6,6,6,6,6,6,6,6,6,6,6,6,6,6,6,6,6,6,6,6,6,6,6,6,6,6,6,6,6,6,6,6,6,6,6,6,6,6,6,6,6,6,6,6,6,6,6,6,6,6,6,6,6,6,6,6,6,6,6,6,6,6,6,6,6,6,6,6,6,6,6,6,6,6,6,6,6,6,6,6,6,6,6,6,6,6,6,6,6,6,6,6,6,6,6,6,6,6,6,6,6,6,6,6,6,6,6,6,6,6,6,6,6,6,6,6,6,6,6,6,6,6,6,6,6,6,6,6,6,6,6,6,6,6,6,6,6,6,6,6,6,6,6,6,6,6,6,6,6,6,6,6,6,6,6,6,6,6,6,6,6,6,6,6,6,6,6,6,6,6,6,6,6,6,6,6,6,6,6,6,6,6,6,6,6,6,6,6,6,6,6,6,6,6,6,6,6,6,6,6,6,6,6,6,6,6,6,6,6,6,6,6,6,6,6,6,6,6,6,6,6,6,6,6,6,6,6,6,6,6,6,6,6,6,6,6],"opacity":1,"visible":false,"x":0,"y":0},{"id":1,"name":"floor","type":"tilelayer","width":70,"height":48,"opacity":1,"visible":true,"x":0,"y":0,"data":[0,0,0,0,0,0,0,0,0,0,0,0,0,0,0,0,0,0,0,0,0,0,0,0,0,0,0,0,0,0,0,0,0,0,0,0,0,0,0,0,0,0,0,0,0,0,0,0,0,0,0,0,0,0,0,0,0,0,0,0,0,0,0,0,0,0,0,0,0,0,0,0,0,0,0,0,0,0,0,0,0,0,0,0,0,0,0,0,0,0,0,0,0,0,0,0,0,0,0,0,0,0,0,0,0,0,0,0,0,0,0,0,0,0,0,0,0,0,0,0,0,0,0,0,0,0,0,0,0,0,0,0,0,0,0,0,0,0,0,0,0,0,0,0,0,0,0,0,0,0,0,0,0,0,0,0,0,0,0,0,0,0,0,0,0,0,0,0,0,0,0,0,0,0,0,0,0,0,0,0,0,0,0,0,0,0,0,0,0,0,0,0,0,0,0,0,0,0,0,0,0,0,0,0,0,0,0,0,0,0,0,0,0,0,0,0,0,0,0,0,0,0,0,0,0,0,0,0,0,0,0,0,0,0,0,0,0,0,0,0,0,0,0,0,0,0,0,0,0,0,0,0,0,0,0,0,0,0,0,0,0,0,0,0,0,0,0,0,0,0,0,0,0,0,0,0,0,0,0,0,0,0,0,0,0,0,0,0,0,0,0,0,0,0,0,0,0,0,0,0,0,0,0,0,0,0,0,0,0,0,0,0,0,0,0,0,0,0,0,0,0,0,0,0,0,0,0,0,0,0,0,0,0,0,0,0,0,0,0,0,0,0,0,0,0,0,0,0,0,0,0,0,0,0,0,0,0,0,0,0,0,0,0,0,0,0,0,0,0,0,0,0,0,0,0,0,0,0,0,0,0,0,0,0,0,0,0,0,0,0,0,0,0,0,0,0,0,0,0,0,0,0,0,0,0,0,0,0,0,0,0,0,0,0,0,0,0,0,0,0,0,0,0,0,0,0,0,0,0,0,0,0,0,0,0,0,0,0,0,0,0,0,0,0,0,0,0,0,0,0,0,0,0,0,0,0,0,0,0,0,0,0,0,0,0,0,0,0,0,0,0,0,0,0,0,0,0,0,0,0,0,0,0,0,0,0,0,0,0,0,0,0,0,0,0,0,0,0,0,0,0,0,0,0,0,0,0,0,0,0,0,0,0,0,0,0,0,0,0,0,0,0,0,0,0,0,0,0,0,0,0,0,0,0,0,0,0,0,0,0,0,0,0,0,0,0,0,0,0,0,0,0,0,0,0,0,0,0,0,0,0,0,0,0,0,0,0,0,0,0,0,0,0,0,0,0,0,0,0,0,0,0,0,0,0,0,0,0,0,0,0,0,0,0,0,0,0,0,0,0,0,0,0,0,0,0,0,0,0,0,0,0,0,0,0,0,0,0,0,0,0,0,0,0,0,0,0,0,0,0,0,0,0,0,0,0,0,0,0,0,0,0,0,0,0,0,0,0,0,0,0,0,0,0,0,0,0,0,0,0,0,0,0,0,0,0,0,0,0,0,0,0,0,0,0,0,0,0,0,0,0,0,0,0,0,0,0,0,0,0,0,0,0,0,0,0,0,0,0,0,0,0,0,0,0,0,0,0,0,0,0,0,0,0,0,0,0,0,0,0,0,0,0,0,0,0,0,0,0,0,0,0,0,0,0,0,0,0,0,0,0,0,0,0,0,0,0,0,0,0,0,0,0,0,0,0,0,0,0,0,0,0,0,0,0,0,0,0,0,0,0,0,0,0,0,0,0,0,0,0,0,0,0,0,0,0,0,0,0,0,0,0,0,0,0,0,0,0,0,0,0,0,0,0,0,0,0,0,0,0,0,0,0,0,0,0,0,0,0,0,0,0,0,0,0,0,0,0,0,0,0,0,0,0,0,0,0,0,0,0,0,0,0,0,0,0,0,0,0,0,0,0,0,0,0,0,0,0,0,0,0,0,0,0,0,0,0,0,0,0,0,0,0,0,0,0,0,0,0,0,0,0,0,0,0,0,0,0,0,0,0,0,0,0,0,0,0,0,0,0,0,0,0,0,0,0,0,0,0,0,0,0,0,0,0,0,0,0,0,0,0,0,0,0,0,0,0,0,0,0,0,0,0,0,0,0,0,0,0,0,0,0,0,0,0,0,0,0,0,0,0,0,0,0,0,0,0,0,0,0,0,0,0,0,0,0,0,0,0,0,0,0,0,0,0,0,0,0,0,0,0,0,0,0,0,0,0,0,0,0,0,0,0,0,0,0,0,0,0,0,0,0,0,0,0,0,0,0,0,0,0,0,0,0,0,0,0,0,0,0,0,0,0,0,0,0,0,0,0,0,0,0,0,0,0,0,0,0,0,0,0,0,0,0,0,0,0,0,0,0,0,0,0,0,0,0,0,0,0,0,0,0,0,0,0,0,0,0,0,0,0,0,0,0,0,0,0,0,0,0,0,0,0,0,0,0,0,0,0,0,0,0,0,0,0,0,0,0,0,0,0,0,0,0,0,0,0,0,0,0,0,0,0,0,0,0,0,0,0,0,0,0,0,0,0,0,0,0,0,0,0,0,0,0,0,0,0,0,0,0,0,0,0,0,0,0,0,0,0,0,0,0,0,0,0,0,0,0,0,0,0,0,0,0,0,0,0,0,0,0,0,0,0,0,0,0,0,0,0,0,0,0,0,0,0,0,0,0,0,0,0,0,0,0,0,0,0,0,0,0,0,0,0,0,0,0,0,0,0,0,0,0,0,0,0,0,0,0,0,0,0,0,0,0,0,0,0,0,0,0,0,0,0,0,0,0,0,0,0,0,0,0,0,0,0,0,0,0,0,0,0,0,0,0,0,0,0,0,0,0,0,0,0,0,0,0,0,0,0,0,0,0,0,0,0,0,0,0,0,0,0,0,0,0,0,0,0,0,0,0,0,0,0,0,0,0,0,0,0,0,0,0,0,0,0,0,0,0,0,0,0,0,0,0,0,0,0,0,0,0,0,0,0,0,0,0,0,0,0,0,0,0,0,0,0,0,0,0,0,0,0,0,0,0,0,0,0,0,0,0,0,0,0,0,0,0,0,0,0,0,0,0,0,0,0,0,0,0,0,0,0,0,0,0,0,0,0,0,0,0,0,0,0,0,0,0,0,0,0,0,0,0,0,0,0,0,0,0,0,0,0,0,0,0,0,0,0,0,0,0,0,0,0,0,0,0,0,0,0,0,0,0,0,0,0,0,0,0,0,0,0,0,0,0,0,0,0,0,0,0,0,0,0,0,0,0,0,0,0,0,0,0,0,0,0,0,0,0,0,0,0,0,0,0,0,0,0,0,0,0,0,0,0,0,0,0,0,0,0,0,0,0,0,0,0,0,0,0,0,0,0,0,0,0,0,0,0,0,0,0,0,0,0,0,0,0,0,0,0,0,0,0,0,0,0,0,0,0,0,0,0,0,0,0,0,0,0,0,0,0,0,0,0,0,0,0,0,0,0,0,0,0,0,0,0,0,0,0,0,0,0,0,0,0,0,0,0,0,0,0,0,0,0,0,0,0,0,0,0,0,0,0,0,0,0,0,0,0,0,0,0,0,0,0,0,0,0,0,0,0,0,0,0,0,0,0,0,0,0,0,0,0,0,0,0,0,0,0,0,0,0,0,0,0,0,0,0,0,0,0,0,0,0,0,0,0,0,0,0,0,0,0,0,0,0,0,0,0,0,0,0,0,0,0,0,0,0,0,0,0,0,0,0,0,0,0,0,0,0,0,0,0,0,0,0,0,0,0,0,0,0,0,0,0,0,0,0,0,0,0,0,0,0,0,0,0,0,0,0,0,0,0,0,0,0,0,0,0,0,0,0,0,0,0,0,0,0,0,0,0,0,0,0,0,0,0,0,0,0,0,0,0,0,0,0,0,0,0,0,0,0,0,0,0,0,0,0,0,0,0,0,0,0,0,0,0,0,0,0,0,0,0,0,0,0,0,0,0,0,0,0,0,0,0,0,0,0,0,0,0,0,0,0,0,0,0,0,0,0,0,0,0,0,0,0,0,0,0,0,0,0,0,0,0,0,0,0,0,0,0,0,0,0,0,0,0,0,0,0,0,0,0,0,0,0,0,0,0,0,0,0,0,0,0,0,0,0,0,0,0,0,0,0,0,0,0,0,0,0,0,0,0,0,0,0,0,0,0,0,0,0,0,0,0,0,0,0,0,0,0,0,0,0,0,0,0,0,0,0,0,0,0,0,0,0,0,0,0,0,0,0,0,0,0,0,0,0,0,0,0,0,0,0,0,0,0,0,0,0,0,0,0,0,0,0,0,0,0,0,0,0,0,0,0,0,0,0,0,0,0,0,0,0,0,0,0,0,0,0,0,0,0,0,0,0,0,0,0,0,0,0,0,0,0,0,0,0,0,0,0,0,0,0,0,0,0,0,0,0,0,0,0,0,0,0,0,0,0,0,0,0,0,0,0,0,0,0,0,0,0,0,0,0,0,0,0,0,0,0,0,0,0,0,0,0,0,0,0,0,0,0,0,0,0,0,0,0,0,0,0,0,0,0,0,0,0,0,0,0,0,0,0,0,0,0,0,0,0,0,0,0,0,0,0,0,0,0,0,0,0,0,0,0,0,0,0,0,0,0,0,0,0,0,0,0,0,0,0,0,0,0,0,0,0,0,0,0,0,0,0,0,0,0,0,0,0,0,0,0,0,0,0,0,0,0,0,0,0,0,0,0,0,0,0,0,0,0,0,0,0,0,0,0,0,0,0,0,0,0,0,0,0,0,0,0,0,0,0,0,0,0,0,0,0,0,0,0,0,0,0,0,0,0,0,0,0,0,0,0,0,0,0,0,0,0,0,0,0,0,0,0,0,0,0,0,0,0,0,0,0,0,0,0,0,0,0,0,0,0,0,0,0,0,0,0,0,0,0,0,0,0,0,0,0,0,0,0,0,0,0,0,0,0,0,0,0,0,0,0,0,0,0,0,0,0,0,0,0,0,0,0,0,0,0,0,0,0,0,0,0,0,0,0,0,0,0,0,0,0,0,0,0,0,0,0,0,0,0,0,0,0,0,0,0,0,0,0,0,0,0,0,0,0,0,0,0,0,0,0,0,0,0,0,0,0,0,0,0,0,0,0,0,0,0,0,0,0,0,0,0,0,0,0,0,0,0,0,0,0,0,0,0,0,0,0,0,0,0,0,0,0,0,0,0,0,0,0,0,0,0,0,0,0,0,0,0,0,0,0,0,0,0,0,0,0,0,0,0,0,0,0,0,0,0,0,0,0,0,0,0,0,0,0,0,0,0,0,0,0,0,0,0,0,0,0,0,0,0,0,0,0,0,0,0,0,0,0,0,0,0,0,0,0,0,0,0,0,0,0,0,0,0,0,0,0,0,0,0,0,0,0,0,0,0,0,0,0,0,0,0,0,0,0,0,0,0,0,0,0,0,0,0,0,0,0,0,0,0,0,0,0,0,0,0,0,0,0,0,0,0,0,0,0,0,0,0,0,0,0,0,0,0,0,0,0,0,0,0,0,0,0,0,0,0,0,0,0,0,0,0,0,0,0,0,0,0,0,0,0,0,0,0,0,0,0,0,0,0,0,0,0,0,0,0,0,0,0,0,0,0,0,0,0,0,0,0,0,0,0,0,0,0,0,0,0,0,0,0,0,0,0,0,0,0,0,0,0,0,0,0,0,0,0,0,0,0,0,0,0,0,0,0,0,0,0,0,0,0,0,0,0,0,0,0,0,0,0,0,0,0,0,0,0,0,0,0,0,0,0,0,0,0,0,0,0,0,0,0,0,0,0,0,0,0,0,0,0,0,0,0,0,0,0,0,0,0,0,0,0,0,0,0,0,0,0,0,0,0,0,0,0,0,0,7,7,7,7,7,7,7,7,7,7,7,7,7,7,7,7,7,7,7,7,7,7,7,7,7,7,7,7,7,7,7,7,7,7,7,7,7,7,7,7,7,7,7,7,7,0,0,0,0,0,0,0,0,0,0,0,0,0,0,0,0,0,0,0,0,0,0,0,0,0,7,7,7,7,7,7,7,7,7,7,7,7,7,7,7,7,7,7,7,7,7,7,7,7,7,7,7,7,7,7,7,7,7,7,7,7,7,7,7,7,7,7,7,7,7,0,0,0,0,0,0,0,0,0,0,0,0,0,0,0,0,0,0,0,0,0,0,0,0,0,7,7,7,7,7,7,7,7,7,7,7,7,7,7,7,7,7,7,7,7,7,7,7,7,7,7,7,7,7,7,7,7,7,7,7,7,7,7,7,7,7,7,7,7,7,0,0,0,0,0,0,0,0,0,0,0,0,0,0,0,0,0,0,0,0,0,0,0,0,0,0,0,0,0,0,0,0,0,0,0,0,0,0,0,0,0,0,0,0,0,0,0,0,0,0,0,0,0,0,0,0,0,0,0,0,0,0,0,0,0,0,0,0,0,0,0,0,0,0,0,0,0,0,0,0,0,0,0,0,0,0,0,0,0,0,0,0,0,0,0,0,0,0,0,0,0,0,0,0,0,0,0,0,0,0,0,0,0,0,0,0,0,0,0,0,0,0,0,0,0,0,0,0,0,0,0,0,0,0,0,0,0,0,0,0,0,0,0,0,0,0,0,0,0,0,0,0,0,0,0,0,0,0,0,0,0,0,0,0,0,0,0,0,0,0,0,0,0,0,0,0,0,0,0,0,0,0,0,0,0,0,0,0,0,0,0,0,0,0,0,0,0,0,0,0,0,0,0,0,0,0,0,0,0,0,0,0,0,0,0,0,0,0,0,0,0,0,0,0,0,0,0,0,0,0,0,0,0,0,0,0,0,0,0,0,0,0,0,0,0,0,0,0,0,0,0,0,0,0,0,0,0,0,0,0,0,0,0,0,0,0,0,0,0,0,0,0,0,0,0,0,0,0,0,0,0,0,0,0,0,0,0,0,0,0,0,0,0,0,0,0,0,0,0,0,0,0,0,0,0,0,0,0,0,0,0,0,0,0,0,0,0,0,0,0,0,0,0,0,0,0,0,0,0,0,0,0,0,0,0,0,0,0,0,0,0,0,0,0,0,0,0,0,0,0,0,0,0,0,0,0,0,0,0,0,0,0,0,0,0,0,0,0,0,0,0,0,0,0,0,0,0,0,0,0,0,0,0,0,0,0,0,0,0,0,0,0,0,0,0,0,0,0,0,0,0,0,0,0,0,0,0,0,0,0,0,0,0,0,0,0,0,0,0,0,0,0,0,0,0,0,0,0,0,0,0,0,0,0,0,0,0,0,0,0,0,0,0,0,0,0,0,0,0,0,0,0,0,0,0,0,0,0,0,0,0,0,0,0,0,0,0,0,0,0,0,0,0,0,0,0,0,0,0,0,0,0,0,0,0,0,0,0,0,0,0,0,0,0,0,0,0,0,0,0,0,0,0,0,0,0,0,0,0,0,0,0,0,0,0,0,0,0,0,0,0,0,0,0,0,0,0,0,0,0,0,0,0,0,0,0,0,0,0,0,0,0,0,0,0,0,0,0,0,0,0,0,0,0,0,0,0,0,0,0,0,0,0,0,0,0,0,0,0,0,0,0]},{"id":2,"name":"objects","type":"objectgroup","draworder":"topdown","opacity":1,"visible":true,"x":0,"y":0,"objects":[{"id":1,"type":"obstacle","name":"wall_top","x":0,"y":0,"width":4504,"height":256,"rotation":0,"visible":true,"properties":[{"name":"hidden","type":"bool","value":true}]},{"id":2,"type":"obstacle","name":"wall_left","x":0,"y":0,"width":104,"height":3072,"rotation":0,"visible":true,"properties":[{"name":"hidden","type":"bool","value":true}]},{"id":3,"type":"obstacle","name":"wall_right","x":4404,"y":0,"width":104,"height":3072,"rotation":0,"visible":true,"properties":[{"name":"hidden","type":"bool","value":true}]},{"id":4,"type":"obstacle","name":"sea_0","x":0,"y":2560,"width":4480,"height":512,"rotation":0,"visible":true,"properties":[{"name":"hidden","type":"bool","value":true}]},{"id":5,"type":"obstacle","name":"hall","x":1600,"y":448,"width":792,"height":308,"rotation":0,"visible":true,"properties":[{"name":"sprite","type":"string","value":"world/earth/house_slate_south_460x460_v1.png"},{"name":"art_width","type":"float","value":230}]},{"id":6,"type":"obstacle","name":"hall_oeste","x":576,"y":552,"width":792,"height":308,"rotation":0,"visible":true,"properties":[{"name":"sprite","type":"string","value":"world/earth/house_timber_south_460x460_v1.png"},{"name":"art_width","type":"float","value":230}]},{"id":7,"type":"obstacle","name":"hall_leste","x":2688,"y":500,"width":792,"height":308,"rotation":0,"visible":true,"properties":[{"name":"sprite","type":"string","value":"world/earth/house_terracotta_south_460x460_v1.png"},{"name":"art_width","type":"float","value":230}]},{"id":8,"type":"obstacle","name":"lamp_west","x":960,"y":1472,"width":52,"height":52,"rotation":0,"visible":true,"properties":[{"name":"sprite","type":"string","value":"world/earth/lamp_post_128x128_v1.png"},{"name":"art_width","type":"float","value":48}]},{"id":9,"type":"obstacle","name":"lamp_east","x":3328,"y":1472,"width":52,"height":52,"rotation":0,"visible":true,"properties":[{"name":"sprite","type":"string","value":"world/earth/lamp_post_128x128_v1.png"},{"name":"art_width","type":"float","value":48}]},{"id":10,"type":"shop","name":"banca_vara","x":1088,"y":1216,"width":180,"height":104,"rotation":0,"visible":true,"properties":[{"name":"sells","type":"string","value":"rod.carbon"},{"name":"price","type":"float","value":24},{"name":"text","type":"string","value":"stand.rod"},{"name":"sprite","type":"string","value":"world/earth/stall_rod_166x166_v2.png"},{"name":"art_width","type":"float","value":83}]},{"id":11,"type":"shop","name":"banca_linha","x":2112,"y":1216,"width":180,"height":104,"rotation":0,"visible":true,"properties":[{"name":"sells","type":"string","value":"line.braided"},{"name":"price","type":"float","value":18},{"name":"text","type":"string","value":"stand.line"},{"name":"sprite","type":"string","value":"world/earth/stall_line_166x166_v2.png"},{"name":"art_width","type":"float","value":83}]},{"id":12,"type":"shop","name":"banca_molinete","x":3136,"y":1216,"width":180,"height":104,"rotation":0,"visible":true,"properties":[{"name":"sells","type":"string","value":"reel.geared"},{"name":"price","type":"float","value":30},{"name":"text","type":"string","value":"stand.reel"},{"name":"sprite","type":"string","value":"world/earth/stall_reel_166x166_v2.png"},{"name":"art_width","type":"float","value":83}]},{"id":13,"type":"item","name":"cartaz","x":1600,"y":1600,"width":152,"height":104,"rotation":0,"visible":true,"properties":[{"name":"text","type":"string","value":"venue.poster"},{"name":"sprite","type":"string","value":"world/earth/crates_128x128_v1.png"}]},{"id":14,"type":"npc","name":"organizer","x":1920,"y":820,"width":152,"height":152,"rotation":0,"visible":true,"properties":[{"name":"dialogue","type":"string","value":"organizer.talk"},{"name":"sprite","type":"string","value":"characters/npcs/official"},{"name":"sprite_version","type":"string","value":"v3"}]},{"id":15,"type":"npc","name":"stand_rod","x":1088,"y":1064,"width":152,"height":152,"rotation":0,"visible":true,"properties":[{"name":"dialogue","type":"string","value":"stand_rod.talk"},{"name":"sprite","type":"string","value":"characters/npcs/stand_rod"},{"name":"sprite_version","type":"string","value":"v3"}]},{"id":16,"type":"npc","name":"stand_line","x":2112,"y":1064,"width":152,"height":152,"rotation":0,"visible":true,"properties":[{"name":"dialogue","type":"string","value":"stand_line.talk"},{"name":"sprite","type":"string","value":"characters/npcs/stand_line"},{"name":"sprite_version","type":"string","value":"v3"}]},{"id":17,"type":"npc","name":"stand_reel","x":3136,"y":1064,"width":152,"height":152,"rotation":0,"visible":true,"properties":[{"name":"dialogue","type":"string","value":"stand_reel.talk"},{"name":"sprite","type":"string","value":"characters/npcs/stand_reel"},{"name":"sprite_version","type":"string","value":"v3"}]},{"id":18,"type":"npc","name":"gatekeeper","x":768,"y":1856,"width":152,"height":152,"rotation":0,"visible":true,"properties":[{"name":"dialogue","type":"string","value":"gatekeeper.talk"},{"name":"sprite","type":"string","value":"characters/npcs/gatekeeper"},{"name":"sprite_version","type":"string","value":"v3"}]},{"id":19,"type":"npc","name":"rival","x":2560,"y":1920,"width":152,"height":152,"rotation":0,"visible":true,"properties":[{"name":"dialogue","type":"string","value":"rival.talk"},{"name":"sprite","type":"string","value":"characters/npcs/rival"},{"name":"sprite_version","type":"string","value":"v3"}]},{"id":20,"type":"npc","name":"spectator_1","x":1472,"y":1920,"width":152,"height":152,"rotation":0,"visible":true,"properties":[{"name":"dialogue","type":"string","value":"spectator_1.talk"},{"name":"sprite","type":"string","value":"characters/npcs/spectator_1"},{"name":"sprite_version","type":"string","value":"v3"}]},{"id":21,"type":"npc","name":"spectator_2","x":3584,"y":1856,"width":152,"height":152,"rotation":0,"visible":true,"properties":[{"name":"dialogue","type":"string","value":"spectator_2.talk"},{"name":"sprite","type":"string","value":"characters/npcs/spectator_2"},{"name":"sprite_version","type":"string","value":"v3"}]},{"id":22,"type":"npc","name":"crowd_01","x":1368,"y":2344,"width":152,"height":152,"rotation":0,"visible":true,"properties":[{"name":"dialogue","type":"string","value":"spectator_2.talk"},{"name":"sprite","type":"string","value":"characters/crowd/crowd_01_a"},{"name":"facing","type":"string","value":"south"}]},{"id":23,"type":"npc","name":"crowd_02","x":1576,"y":2344,"width":152,"height":152,"rotation":0,"visible":true,"properties":[{"name":"dialogue","type":"string","value":"spectator_1.talk"},{"name":"sprite","type":"string","value":"characters/crowd/crowd_02_b"},{"name":"facing","type":"string","value":"south"}]},{"id":24,"type":"npc","name":"crowd_03","x":2508,"y":2344,"width":152,"height":152,"rotation":0,"visible":true,"properties":[{"name":"dialogue","type":"string","value":"spectator_2.talk"},{"name":"sprite","type":"string","value":"characters/crowd/crowd_03_a"},{"name":"facing","type":"string","value":"south"}]},{"id":25,"type":"npc","name":"crowd_04","x":2712,"y":2344,"width":152,"height":152,"rotation":0,"visible":true,"properties":[{"name":"dialogue","type":"string","value":"spectator_1.talk"},{"name":"sprite","type":"string","value":"characters/crowd/crowd_04_b"},{"name":"facing","type":"string","value":"south"}]},{"id":26,"type":"npc","name":"crowd_05","x":3508,"y":2344,"width":152,"height":152,"rotation":0,"visible":true,"properties":[{"name":"dialogue","type":"string","value":"spectator_2.talk"},{"name":"sprite","type":"string","value":"characters/crowd/crowd_05_a"},{"name":"facing","type":"string","value":"south"}]},{"id":27,"type":"npc","name":"crowd_06","x":3724,"y":2344,"width":152,"height":152,"rotation":0,"visible":true,"properties":[{"name":"dialogue","type":"string","value":"spectator_1.talk"},{"name":"sprite","type":"string","value":"characters/crowd/crowd_06_b"},{"name":"facing","type":"string","value":"south"}]},{"id":28,"type":"npc","name":"crowd_07","x":1804,"y":1740,"width":152,"height":152,"rotation":0,"visible":true,"properties":[{"name":"dialogue","type":"string","value":"spectator_2.talk"},{"name":"sprite","type":"string","value":"characters/crowd/crowd_07_a"},{"name":"facing","type":"string","value":"north"}]},{"id":29,"type":"npc","name":"crowd_08","x":2856,"y":1676,"width":152,"height":152,"rotation":0,"visible":true,"properties":[{"name":"dialogue","type":"string","value":"spectator_1.talk"},{"name":"sprite","type":"string","value":"characters/crowd/crowd_08_b"},{"name":"facing","type":"string","value":"west"}]},{"id":30,"type":"npc","name":"crowd_09","x":3916,"y":1588,"width":152,"height":152,"rotation":0,"visible":true,"properties":[{"name":"dialogue","type":"string","value":"spectator_2.talk"},{"name":"sprite","type":"string","value":"characters/crowd/crowd_09_a"},{"name":"facing","type":"string","value":"west"}]},{"id":31,"type":"npc","name":"crowd_10","x":408,"y":1512,"width":152,"height":152,"rotation":0,"visible":true,"properties":[{"name":"dialogue","type":"string","value":"spectator_1.talk"},{"name":"sprite","type":"string","value":"characters/crowd/crowd_10_b"},{"name":"facing","type":"string","value":"east"}]},{"id":32,"type":"npc","name":"crowd_11","x":2292,"y":1896,"width":152,"height":152,"rotation":0,"visible":true,"properties":[{"name":"dialogue","type":"string","value":"spectator_2.talk"},{"name":"sprite","type":"string","value":"characters/crowd/crowd_11_a"},{"name":"facing","type":"string","value":"north"}]},{"id":33,"type":"npc","name":"crowd_12","x":1256,"y":1576,"width":152,"height":152,"rotation":0,"visible":true,"properties":[{"name":"dialogue","type":"string","value":"spectator_1.talk"},{"name":"sprite","type":"string","value":"characters/crowd/crowd_12_b"},{"name":"facing","type":"string","value":"north"}]},{"id":34,"type":"fishing_spot","name":"round1","x":1024,"y":2496,"width":204,"height":152,"rotation":0,"visible":true,"properties":[{"name":"encounter","type":"string","value":"tournament.round1"},{"name":"requires","type":"string","value":"tournament.entered"},{"name":"forbids","type":"string","value":"encounter.tournament.round1.caught"},{"name":"sprite_anim","type":"string","value":"effects/ripple_128_anim_v1"},{"name":"art_width","type":"float","value":45}]},{"id":35,"type":"fishing_spot","name":"round2","x":2112,"y":2496,"width":204,"height":152,"rotation":0,"visible":true,"properties":[{"name":"encounter","type":"string","value":"tournament.round2"},{"name":"requires","type":"string","value":"encounter.tournament.round1.caught"},{"name":"forbids","type":"string","value":"encounter.tournament.round2.caught"},{"name":"sprite_anim","type":"string","value":"effects/ripple_128_anim_v1"},{"name":"art_width","type":"float","value":45}]},{"id":36,"type":"fishing_spot","name":"final","x":3200,"y":2496,"width":204,"height":152,"rotation":0,"visible":true,"properties":[{"name":"encounter","type":"string","value":"tournament.final"},{"name":"requires","type":"string","value":"encounter.tournament.round2.caught"},{"name":"forbids","type":"string","value":"encounter.tournament.final.caught"},{"name":"sprite_anim","type":"string","value":"effects/ripple_128_anim_v1"},{"name":"art_width","type":"float","value":45}]},{"id":37,"type":"portal","name":"road_back","x":152,"y":1920,"width":152,"height":204,"rotation":0,"visible":true,"properties":[{"name":"map","type":"string","value":"village"},{"name":"x","type":"float","value":1440},{"name":"y","type":"float","value":134}]}]}],"tilesets":[{"firstgid":1,"name":"earth","tilewidth":64,"tileheight":64,"tilecount":17,"columns":4,"image":"earth_tiles.png","imagewidth":256,"imageheight":320,"margin":0,"spacing":0}]}