{"compressionlevel":-1,"height":20,"width":30,"infinite":false,"layers":[{"id":1,"name":"floor","type":"tilelayer","width":30,"height":20,"data":[1,1,1,1,1,1,1,1,1,1,1,1,1,1,1,1,1,1,1,1,1,1,1,1,1,1,1,1,1,1,1,1,1,1,1,1,1,1,1,1,1,1,1,1,1,1,1,1,1,1,1,1,1,1,1,1,1,1,1,1,1,1,1,1,1,1,1,1,1,1,1,1,1,1,1,1,1,1,1,1,1,1,1,1,1,1,1,1,1,1,1,1,1,1,1,1,1,1,1,1,1,1,1,1,1,1,1,1,1,1,1,1,1,1,1,1,1,1,1,1,1,1,1,1,1,1,1,1,1,1,1,1,1,1,1,1,1,1,1,1,1,1,1,1,1,1,1,1,1,1,1,1,1,1,1,1,1,1,1,1,1,1,1,1,1,1,1,1,1,1,1,1,1,1,1,1,1,1,1,1,1,1,1,1,1,1,1,1,1,1,1,1,1,1,1,1,1,1,1,1,1,1,1,1,1,1,1,1,1,1,1,1,1,1,1,1,1,1,1,1,1,1,1,1,1,1,1,1,1,1,1,1,1,1,1,1,1,1,1,1,1,1,1,1,1,1,1,1,1,1,1,1,1,1,1,1,1,1,1,1,1,1,1,1,1,1,1,1,1,1,1,1,1,1,1,1,1,1,1,1,1,1,1,1,1,1,1,1,1,1,1,1,1,1,1,1,1,1,1,1,1,1,1,1,1,1,1,1,1,1,1,1,1,1,1,1,1,1,1,1,1,1,1,1,1,1,1,1,1,1,1,1,1,1,1,1,1,1,1,1,1,1,1,1,1,1,1,1,1,1,1,1,1,1,1,1,1,1,1,1,1,1,1,1,1,1,1,1,1,1,1,1,1,1,1,1,1,1,1,1,1,1,1,1,1,1,1,1,1,1,1,1,1,1,1,1,1,1,1,1,1,1,1,1,1,1,1,1,1,1,1,1,1,1,1,1,1,1,1,1,1,1,1,1,1,1,1,1,1,1,1,1,1,1,1,1,1,1,1,1,1,1,1,1,1,1,1,1,1,1,1,1,1,1,1,1,1,1,1,1,1,1,1,1,1,1,1,1,1,1,1,1,1,1,1,1,1,1,1,1,1,1,1,1,1,1,1,1,1,1,1,1,1,1,1,1,1,1,1,1,1,1,1,1,1,1,1,1,1,1,1,1,1,1,1,1,1,1,1,1,1,1,1,1,1,1,1,1,1,1,1,1,1,1,1,1,1,1,1,1,1,1,1,1,1,1,1,1,1,1,1,1,1,1,1,1,1,1,1,1,1,1,1,1,1,1,1,1,1,1,1,1,1,1,1,1,1,1,1,1,1,1,1,1,1,1,1,1,1,1,1,1,1,1,1,1,1,1,1,1],"opacity":1,"visible":true,"x":0,"y":0},{"id":2,"name":"objects","type":"objectgroup","draworder":"topdown","opacity":1,"visible":true,"x":0,"y":0,"objects":[{"id":1,"type":"npc","name":"spike_npc","x":160,"y":120,"width":24,"height":24,"rotation":0,"visible":true},{"id":2,"type":"fishing_spot","name":"spike_fishing","x":360,"y":160,"width":32,"height":24,"rotation":0,"visible":true},{"id":3,"type":"portal","name":"spike_portal","x":420,"y":240,"width":24,"height":32,"rotation":0,"visible":true},{"id":4,"type":"obstacle","name":"crate","x":220,"y":90,"width":32,"height":80,"rotation":0,"visible":true},{"id":5,"type":"obstacle","name":"top","x":0,"y":0,"width":480,"height":16,"rotation":0,"visible":true},{"id":6,"type":"obstacle","name":"bottom","x":0,"y":304,"width":480,"height":16,"rotation":0,"visible":true},{"id":7,"type":"obstacle","name":"left","x":0,"y":0,"width":16,"height":320,"rotation":0,"visible":true},{"id":8,"type":"obstacle","name":"right","x":464,"y":0,"width":16,"height":320,"rotation":0,"visible":true}]}],"nextlayerid":3,"nextobjectid":9,"orientation":"orthogonal","renderorder":"right-down","tiledversion":"1.11.2","tileheight":16,"tilewidth":16,"type":"map","version":"1.10","tilesets":[{"firstgid":1,"name":"placeholder","tilewidth":16,"tileheight":16,"tilecount":1,"columns":1,"image":"ground.png","imagewidth":16,"imageheight":16,"margin":0,"spacing":0}]}
